!!!SOCIAL_FUNCTION:	songs connected with war and hunting
!!!PDT:	1932
!!!OTL: No_43_The_War_Bundle_Causes_a_Fog.krn
!!!REG: Wisconsin
!!!LANG: Non-Tone
!!!LING_GROUP: Algonquin
**kern
*staff1
=1-
*clefF4
*k[f#c#g#d#a#]
*M3/4
2r
12c#\L
12c#\
12c#\J
=2!|:
4c#\
4c#\
8c#\L
8c#\J
=3||
*M2/4
12B\L
12B\
24B\Jk
24r
12c#\L
12c#\
12c#\J
=4||
*M3/4
4B\
4B\
8B\L
8G#\J
=5||
*M2/4
12F#\L
12F#\
24F#\Jk
24r
12B\L
12B\
12c#\J
=6||
*M3/4
4B\
4B\
8B\L
8G#\J
=7||
*M2/4
12F#\L
12F#\
12F#\J
12G#\L
12G#\
12G#\J
=8||
*M3/4
4F#\
8F#\
8r
8F#\L
8D#\J
=9||
*M2/4
12C#/L
12C#/
12C#/J
12BB/L
12C#/
12C#/J
=10||
*M3/4
4BB/
4BB/
8BB/L
8GG#/J
=11||
*M2/4
12FF#/L
12FF#/
24FF#/Jk
24r
12BB/L
12BB/
12C#/J
=12||
*M3/4
4BB/
4BB/
8BB/L
8GG#/J
=13
=
2FF#/
12c#\L
12c#\
12c#\J
=14:|!
2FF#/
4r
==
*-
